icon-svg/bulb-candle-hung.svg

<svg xmlns="http://www.w3.org/2000/svg" fill="#44739e" viewBox="0 0 24 24"><path d="M8.3 11.7c.8-.2 2-.4 3.7-.4s2.9.2 3.7.4c-.2 3.9-2.3 9.3-3.7 9.3s-3.5-5.4-3.7-9.3m-.1-.8s0-.1 0 0c0-2 .6-3.3 1.3-4 .7-.1 1.5-.1 2.5-.1s1.8.1 2.5.2c.7.7 1.3 2 1.3 3.9v.1c-1.2-.3-2.7-.4-3.8-.4s-2.6 0-3.8.3m5.7-4.8C13.2 6 12.5 6 12 6s-1.2 0-1.9.1l.3-1.9c0-.1.1-.3.2-.3l.3-.3.1-.1.3-.4c.1 0 .3-.1.5-.1h.5c.2 0 .4.1.5.2l.2.4.1.1.3.3c.1.1.2.2.2.3z"/></svg>

<?xml version="1.0" encoding="UTF-8"?>
<svg width="24px" fill="#44739e" height="24px" viewBox="0 0 24 24" version="1.1" xmlns="http://www.w3.org/2000/svg" xmlns:xlink="http://www.w3.org/1999/xlink">
            <path d="M8.3,11.7c0.8-0.2,2-0.4,3.7-0.4s2.9,0.2,3.7,0.4C15.5,15.6,13.4,21,12,21C10.6,21,8.5,15.6,8.3,11.7z M8.2,10.9C8.2,10.9,8.2,10.8,8.2,10.9c0-2,0.6-3.3,1.3-4C10.2,6.8,11,6.8,12,6.8s1.8,0.1,2.5,0.2c0.7,0.7,1.3,2,1.3,3.9 c0,0,0,0.1,0,0.1c-1.2-0.3-2.7-0.4-3.8-0.4S9.4,10.6,8.2,10.9z M13.9,6.1C13.2,6,12.5,6,12,6s-1.2,0-1.9,0.1l0.3-1.9 c0-0.1,0.1-0.3,0.2-0.3l0.3-0.3c0,0,0,0,0.1-0.1l0.3-0.4C11.4,3.1,11.6,3,11.8,3h0.5c0.2,0,0.4,0.1,0.5,0.2L13,3.6c0,0,0,0,0.1,0.1 l0.3,0.3c0.1,0.1,0.2,0.2,0.2,0.3L13.9,6.1z"/>

</svg>
